; generated by PrusaSlicer 2.3.0+linux-x64 on 2021-12-28 at 06:30:26 UTC


;
;

;
;
; 

; external perimeters extrusion width = 0.45mm
; perimeters extrusion width = 0.45mm
; infill extrusion width = 0.45mm
; solid infill extrusion width = 0.45mm
; top infill extrusion width = 0.40mm
; support material extrusion width = 0.35mm
; first layer extrusion width = 0.42mm

M73 P0 R274
M201 X1250 Y1250 Z400 E5000 ; sets maximum accelerations, mm/sec^2
M203 X180 Y180 Z12 E80 ; sets maximum feedrates, mm/sec
M204 P1250 R1250 T1250 ; sets acceleration (P, T) and retract acceleration (R), mm/sec^2
M205 X8.00 Y8.00 Z2.00 E10.00 ; sets the jerk limits, mm/sec
M205 S0 T0 ; sets the minimum extruding and travel feed rate, mm/sec
M107
;TYPE:Custom
G90 ; use absolute coordinates
M83 ; extruder relative mode
M104 S170 ; set extruder temp for bed leveling
M140 S60 ; set bed temp
M109 R170 ; wait for bed leveling temp
M190 S60 ; wait for bed temp
G28 ; home all without mesh bed level
G29 ; mesh bed leveling 
M104 S215 ; set extruder temp
G92 E0.0
G1 Y-2.0 X179 F2400
G1 Z3 F720
M109 S215 ; wait for extruder temp

; intro line
G1 X170 F1000
G1 Z0.2 F720
G1 X110.0 E8.0 F900
G1 X40.0 E10.0 F700
G92 E0.0

M221 S95 ; set flow
G21 ; set units to millimeters
G90 ; use absolute coordinates
M83 ; use relative distances for extrusion
M900 K0.2 ; Filament gcode LA 1.5
; ; Filament gcode LA 1.0
;LAYER_CHANGE
;Z:0.2
;HEIGHT:0.2
;BEFORE_LAYER_CHANGE
G92 E0.0
;0.2


G1 Z0.200 F9000.000
;AFTER_LAYER_CHANGE
;0.2
G1 E-3.20000 F4200.000
G1 Z0.400 F9000.000
G1 X26.862 Y41.962
G1 Z0.200
G1 E3.20000 F2400.000
M204 S800
;TYPE:Skirt
;WIDTH:0.42
G1 F1200.000
G1 X27.410 Y41.233 E0.02860
G1 X32.749 Y36.528 E0.22311
G1 X33.431 Y36.165 E0.02426
G1 X34.196 Y36.040 E0.02429
G1 X145.910 Y36.212 E3.50273
G1 X146.607 Y36.348 E0.02225
G1 X147.235 Y36.686 E0.02237
G1 X152.554 Y41.201 E0.21877
G1 X153.049 Y41.795 E0.02426
G1 X153.328 Y42.521 E0.02437
G1 X157.235 Y63.958 E0.68322
G1 X157.231 Y102.504 E1.20857
G1 X153.359 Y137.290 E1.09742
G1 X153.172 Y137.966 E0.02201
G1 X152.797 Y138.556 E0.02190
G1 X152.425 Y138.903 E0.01597
G1 X151.990 Y139.161 E0.01585
G1 X151.510 Y139.322 E0.01585
G1 X151.004 Y139.377 E0.01597
G1 X28.989 Y139.377 E3.82571
G1 X28.165 Y139.226 E0.02626
G1 X27.445 Y138.798 E0.02626
G1 X27.100 Y138.428 E0.01585
G1 X26.842 Y137.998 E0.01574
G1 X26.681 Y137.522 E0.01574
G1 X26.623 Y137.020 E0.01585
G1 X26.628 Y42.844 E2.95283
G1 X26.846 Y42.020 E0.02672
M204 S1250
; printing object case.stl id:0 copy 0
G1 E-2.24000 F4200.000
;WIPE_START
G1 F7200.000
G1 X27.410 Y41.233 E-0.53650
G1 X27.918 Y40.785 E-0.37550
;WIPE_END
G1 E-0.04800 F4200.000
G1 Z0.400 F9000.000
G1 X34.192 Y38.417
G1 Z0.200
G1 E3.20000 F2400.000
M204 S800
;TYPE:Support material
G1 F1200.000
G1 X34.192 Y42.541 E0.12933
G1 X34.946 Y42.541 E0.02365
G1 X34.946 Y38.586 E0.12401
G1 X35.701 Y38.586 E0.02365
G1 X35.701 Y42.541 E0.12401
G1 X36.455 Y42.541 E0.02365
G1 X36.455 Y38.586 E0.12401
G1 X37.209 Y38.586 E0.02365
G1 X37.209 Y42.541 E0.12401
G1 X37.963 Y42.541 E0.02365
G1 X37.963 Y38.586 E0.12401
G1 X38.717 Y38.586 E0.02365
G1 X38.717 Y42.541 E0.12401
G1 X39.471 Y42.541 E0.02365
G1 X39.471 Y38.586 E0.12401
G1 X40.226 Y38.586 E0.02365
G1 X40.226 Y42.541 E0.12401
G1 X40.980 Y42.541 E0.02365
G1 X40.980 Y38.586 E0.12401
G1 X41.734 Y38.586 E0.02365
G1 X41.734 Y42.541 E0.12401
G1 X42.488 Y42.541 E0.02365
G1 X42.488 Y38.586 E0.12401
G1 X43.242 Y38.586 E0.02365
G1 X43.242 Y42.541 E0.12401
G1 X43.996 Y42.541 E0.02365
G1 X43.996 Y38.586 E0.12401
G1 X44.750 Y38.586 E0.02365
G1 X44.750 Y42.541 E0.12401
G1 X45.505 Y42.541 E0.02365
G1 X45.505 Y38.586 E0.12401
G1 X46.259 Y38.586 E0.02365
G1 X46.259 Y42.541 E0.12401
G1 X47.013 Y42.541 E0.02365
G1 X47.013 Y38.586 E0.12401
G1 X47.767 Y38.586 E0.02365
G1 X47.767 Y42.541 E0.12401
G1 X48.521 Y42.541 E0.02365
G1 X48.521 Y38.586 E0.12401
G1 X49.275 Y38.586 E0.02365
G1 X49.275 Y42.541 E0.12401
G1 X50.030 Y42.541 E0.02365
G1 X50.030 Y38.586 E0.12401
G1 X50.784 Y38.586 E0.02365
G1 X50.784 Y42.541 E0.12401
G1 X51.538 Y42.541 E0.02365
G1 X51.538 Y38.586 E0.12401
G1 X52.292 Y38.586 E0.02365
G1 X52.292 Y42.541 E0.12401
G1 X53.046 Y42.541 E0.02365
G1 X53.046 Y38.586 E0.12401
G1 X53.800 Y38.586 E0.02365
G1 X53.800 Y42.541 E0.12401
G1 X54.555 Y42.541 E0.02365
G1 X54.555 Y38.586 E0.12401
G1 X55.309 Y38.586 E0.02365
G1 X55.309 Y42.541 E0.12401
G1 X56.063 Y42.541 E0.02365
G1 X56.063 Y38.586 E0.12401
G1 X56.817 Y38.586 E0.02365
G1 X56.817 Y42.541 E0.12401
G1 X57.571 Y42.541 E0.02365
G1 X57.571 Y38.586 E0.12401
G1 X58.325 Y38.586 E0.02365
G1 X58.325 Y42.541 E0.12401
G1 X59.079 Y42.541 E0.02365
G1 X59.079 Y38.586 E0.12401
G1 X59.834 Y38.586 E0.02365
G1 X59.834 Y42.541 E0.12401
G1 X60.588 Y42.541 E0.02365
G1 X60.588 Y38.586 E0.12401
G1 X61.342 Y38.586 E0.02365
G1 X61.342 Y42.541 E0.12401
G1 X62.096 Y42.541 E0.02365
G1 X62.096 Y38.586 E0.12401
G1 X62.850 Y38.586 E0.02365
G1 X62.850 Y42.541 E0.12401
G1 X63.604 Y42.541 E0.02365
G1 X63.604 Y38.586 E0.12401
G1 X64.359 Y38.586 E0.02365
G1 X64.359 Y42.541 E0.12401
G1 X65.113 Y42.541 E0.02365
G1 X65.113 Y38.586 E0.12401
G1 X65.867 Y38.586 E0.02365
G1 X65.867 Y42.541 E0.12401
G1 X66.621 Y42.541 E0.02365
G1 X66.621 Y38.586 E0.12401
G1 X67.375 Y38.586 E0.02365
G1 X67.375 Y42.541 E0.12401
G1 X68.129 Y42.541 E0.02365
G1 X68.129 Y38.586 E0.12401
G1 X68.884 Y38.586 E0.02365
G1 X68.884 Y42.541 E0.12401
G1 X69.638 Y42.541 E0.02365
G1 X69.638 Y38.586 E0.12401
G1 X70.392 Y38.586 E0.02365
G1 X70.392 Y42.541 E0.12401
G1 X71.146 Y42.541 E0.02365
G1 X71.146 Y38.586 E0.12401
G1 X71.900 Y38.586 E0.02365
G1 X71.900 Y42.541 E0.12401
G1 X72.654 Y42.541 E0.02365
G1 X72.654 Y38.586 E0.12401
G1 X73.409 Y38.586 E0.02365
G1 X73.409 Y42.541 E0.12401
G1 X74.163 Y42.541 E0.02365
G1 X74.163 Y38.586 E0.12401
G1 X74.917 Y38.586 E0.02365
G1 X74.917 Y42.541 E0.12401
G1 X75.671 Y42.541 E0.02365
G1 X75.671 Y38.586 E0.12401
G1 X76.425 Y38.586 E0.02365
M73 P0 R273
G1 X76.425 Y42.541 E0.12401
G1 X77.179 Y42.541 E0.02365
G1 X77.179 Y38.586 E0.12401
G1 X77.933 Y38.586 E0.02365
G1 X77.933 Y42.541 E0.12401
G1 X78.688 Y42.541 E0.02365
G1 X78.688 Y38.586 E0.12401
G1 X79.442 Y38.586 E0.02365
G1 X79.442 Y42.541 E0.12401
G1 X80.196 Y42.541 E0.02365
G1 X80.196 Y38.586 E0.12401
G1 X80.950 Y38.586 E0.02365
G1 X80.950 Y42.541 E0.12401
G1 X81.704 Y42.541 E0.02365
G1 X81.704 Y38.586 E0.12401
G1 X82.458 Y38.586 E0.02365
G1 X82.458 Y42.541 E0.12401
G1 X83.213 Y42.541 E0.02365
G1 X83.213 Y38.586 E0.12401
G1 X83.967 Y38.586 E0.02365
G1 X83.967 Y42.541 E0.12401
G1 X84.721 Y42.541 E0.02365
G1 X84.721 Y38.586 E0.12401
G1 X85.475 Y38.586 E0.02365
G1 X85.475 Y42.541 E0.12401
G1 X86.229 Y42.541 E0.02365
G1 X86.229 Y38.586 E0.12401
G1 X86.983 Y38.586 E0.02365
G1 X86.983 Y42.541 E0.12401
G1 X87.738 Y42.541 E0.02365
G1 X87.738 Y38.586 E0.12401
G1 X88.492 Y38.586 E0.02365
G1 X88.492 Y42.541 E0.12401
G1 X89.246 Y42.541 E0.02365
G1 X89.246 Y38.586 E0.12401
G1 X90.000 Y38.586 E0.02365
G1 X90.000 Y42.541 E0.12401
G1 X90.754 Y42.541 E0.02365
G1 X90.754 Y38.586 E0.12401
G1 X91.508 Y38.586 E0.02365
G1 X91.508 Y42.541 E0.12401
G1 X92.262 Y42.541 E0.02365
G1 X92.262 Y38.586 E0.12401
G1 X93.017 Y38.586 E0.02365
G1 X93.017 Y42.541 E0.12401
G1 X93.771 Y42.541 E0.02365
G1 X93.771 Y38.586 E0.12401
G1 X94.525 Y38.586 E0.02365
G1 X94.525 Y42.541 E0.12401
G1 X95.279 Y42.541 E0.02365
G1 X95.279 Y38.586 E0.12401
G1 X96.033 Y38.586 E0.02365
G1 X96.033 Y42.541 E0.12401
G1 X96.787 Y42.541 E0.02365
G1 X96.787 Y38.586 E0.12401
G1 X97.542 Y38.586 E0.02365
G1 X97.542 Y42.541 E0.12401
G1 X98.296 Y42.541 E0.02365
G1 X98.296 Y38.586 E0.12401
G1 X99.050 Y38.586 E0.02365
G1 X99.050 Y42.541 E0.12401
G1 X99.804 Y42.541 E0.02365
G1 X99.804 Y38.586 E0.12401
G1 X100.558 Y38.586 E0.02365
G1 X100.558 Y42.541 E0.12401
G1 X101.312 Y42.541 E0.02365
G1 X101.312 Y38.586 E0.12401
G1 X102.067 Y38.586 E0.02365
G1 X102.067 Y42.541 E0.12401
G1 X102.821 Y42.541 E0.02365
G1 X102.821 Y38.586 E0.12401
G1 X103.575 Y38.586 E0.02365
G1 X103.575 Y42.541 E0.12401
G1 X104.329 Y42.541 E0.02365
G1 X104.329 Y38.586 E0.12401
G1 X105.083 Y38.586 E0.02365
G1 X105.083 Y42.541 E0.12401
G1 X105.837 Y42.541 E0.02365
G1 X105.837 Y38.586 E0.12401
G1 X106.592 Y38.586 E0.02365
G1 X106.592 Y42.541 E0.12401
G1 X107.346 Y42.541 E0.02365
G1 X107.346 Y38.586 E0.12401
G1 X108.100 Y38.586 E0.02365
G1 X108.100 Y42.541 E0.12401
G1 X108.854 Y42.541 E0.02365
G1 X108.854 Y38.586 E0.12401
G1 X109.608 Y38.586 E0.02365
G1 X109.608 Y42.541 E0.12401
G1 X110.362 Y42.541 E0.02365
G1 X110.362 Y38.586 E0.12401
G1 X111.116 Y38.586 E0.02365
G1 X111.116 Y42.541 E0.12401
G1 X111.871 Y42.541 E0.02365
G1 X111.871 Y38.586 E0.12401
G1 X112.625 Y38.586 E0.02365
G1 X112.625 Y42.541 E0.12401
G1 X113.379 Y42.541 E0.02365
G1 X113.379 Y38.586 E0.12401
G1 X114.133 Y38.586 E0.02365
G1 X114.133 Y42.541 E0.12401
G1 X114.887 Y42.541 E0.02365
G1 X114.887 Y38.586 E0.12401
G1 X115.641 Y38.586 E0.02365
G1 X115.641 Y42.541 E0.12401
G1 X116.396 Y42.541 E0.02365
G1 X116.396 Y38.586 E0.12401
G1 X117.150 Y38.586 E0.02365
G1 X117.150 Y42.541 E0.12401
G1 X117.904 Y42.541 E0.02365
G1 X117.904 Y38.586 E0.12401
G1 X118.658 Y38.586 E0.02365
G1 X118.658 Y42.541 E0.12401
G1 X119.412 Y42.541 E0.02365
G1 X119.412 Y38.586 E0.12401
G1 X120.166 Y38.586 E0.02365
G1 X120.166 Y42.541 E0.12401
G1 X120.921 Y42.541 E0.02365
G1 X120.921 Y38.586 E0.12401
G1 X121.675 Y38.586 E0.02365
G1 X121.675 Y42.541 E0.12401
G1 X122.429 Y42.541 E0.02365
G1 X122.429 Y38.586 E0.12401
G1 X123.183 Y38.586 E0.02365
G1 X123.183 Y42.541 E0.12401
G1 X123.937 Y42.541 E0.02365
G1 X123.937 Y38.586 E0.12401
G1 X124.691 Y38.586 E0.02365
G1 X124.691 Y42.541 E0.12401
G1 X125.445 Y42.541 E0.02365
G1 X125.445 Y38.586 E0.12401
G1 X126.200 Y38.586 E0.02365
G1 X126.200 Y42.541 E0.12401
G1 X126.954 Y42.541 E0.02365
G1 X126.954 Y38.586 E0.12401
G1 X127.708 Y38.586 E0.02365
G1 X127.708 Y42.541 E0.12401
G1 X128.462 Y42.541 E0.02365
G1 X128.462 Y38.586 E0.12401
G1 X129.216 Y38.586 E0.02365
G1 X129.216 Y42.541 E0.12401
G1 X129.970 Y42.541 E0.02365
G1 X129.970 Y38.586 E0.12401
G1 X130.725 Y38.586 E0.02365
G1 X130.725 Y42.541 E0.12401
G1 X131.479 Y42.541 E0.02365
G1 X131.479 Y38.586 E0.12401
G1 X132.233 Y38.586 E0.02365
G1 X132.233 Y42.541 E0.12401
G1 X132.987 Y42.541 E0.02365
G1 X132.987 Y38.586 E0.12401
G1 X133.741 Y38.586 E0.02365
G1 X133.741 Y42.541 E0.12401
G1 X134.495 Y42.541 E0.02365
G1 X134.495 Y38.586 E0.12401
G1 X135.250 Y38.586 E0.02365
G1 X135.250 Y42.541 E0.12401
G1 X136.004 Y42.541 E0.02365
G1 X136.004 Y38.586 E0.12401
G1 X136.758 Y38.586 E0.02365
G1 X136.758 Y42.541 E0.12401
G1 X137.512 Y42.541 E0.02365
G1 X137.512 Y38.586 E0.12401
G1 X138.266 Y38.586 E0.02365
G1 X138.266 Y42.541 E0.12401
G1 X139.020 Y42.541 E0.02365
G1 X139.020 Y38.586 E0.12401
G1 X139.774 Y38.586 E0.02365
G1 X139.774 Y42.541 E0.12401
G1 X140.529 Y42.541 E0.02365
G1 X140.529 Y38.586 E0.12401
G1 X141.283 Y38.586 E0.02365
G1 X141.283 Y42.541 E0.12401
G1 X142.037 Y42.541 E0.02365
G1 X142.037 Y38.586 E0.12401
G1 X142.791 Y38.586 E0.02365
G1 X142.791 Y42.541 E0.12401
G1 X143.545 Y42.541 E0.02365
G1 X143.545 Y38.586 E0.12401
G1 X144.299 Y38.586 E0.02365
G1 X144.299 Y42.541 E0.12401
G1 X145.054 Y42.541 E0.02365
G1 X145.054 Y38.586 E0.12401
G1 X145.808 Y38.586 E0.02365
G1 X145.808 Y42.711 E0.12933
M204 S1250
G1 E-2.24000 F4200.000
;WIPE_START
G1 F7200.000
G1 X145.808 Y41.065 E-0.91200
;WIPE_END
G1 E-0.04800 F4200.000
G1 Z0.400 F9000.000
G1 X151.841 Y63.795
G1 Z0.200
G1 E3.20000 F2400.000
M204 S800
G1 F1200.000
G1 X151.841 Y102.193 E1.20396
G1 X152.595 Y102.193 E0.02365
G1 X152.595 Y63.964 E1.19864
G1 X153.349 Y63.964 E0.02365
G1 X153.349 Y102.193 E1.19864
G1 X154.104 Y102.193 E0.02365
G1 X154.104 Y63.964 E1.19864
G1 X154.858 Y63.964 E0.02365
G1 X154.858 Y102.363 E1.20396
M204 S1250
G1 E-2.24000 F4200.000
;WIPE_START
G1 F7200.000
G1 X154.858 Y100.717 E-0.91200
;WIPE_END
G1 E-0.04800 F4200.000
G1 Z0.400 F9000.000
G1 X150.213 Y136.213
G1 Z0.200
G1 E3.20000 F2400.000
M204 S800
;TYPE:Perimeter
G1 F1200.000
G1 X29.787 Y136.213 E3.77587
G1 X29.787 Y43.787 E2.89795
G1 X150.213 Y43.787 E3.77587
G1 X150.213 Y136.153 E2.89607
M204 S1250
G1 X150.590 Y136.590 F9000.000
M204 S800
;TYPE:External perimeter
G1 F1200.000
G1 X29.410 Y136.590 E3.79951
M73 P0 R272
G1 X29.410 Y43.410 E2.92159
G1 X150.590 Y43.410 E3.79951
G1 X150.590 Y136.530 E2.91971
M204 S1250
G1 X150.200 Y136.503 F9000.000
G1 E-2.24000 F4200.000
;WIPE_START
G1 F7200.000
G1 X148.944 Y136.531 E-0.91200
;WIPE_END
G1 E-0.04800 F4200.000
G1 Z0.400 F9000.000
G1 X150.100 Y44.663
G1 Z0.200
G1 E3.20000 F2400.000
M204 S800
;TYPE:Solid infill
;WIDTH:0.420413
G1 F1200.000
G1 X149.506 Y44.070 E0.02634
G1 X148.972 Y44.070 E0.01676
G1 X149.930 Y45.028 E0.04251
G1 X149.930 Y45.561 E0.01676
G1 X148.439 Y44.070 E0.06621
G1 X147.905 Y44.070 E0.01676
G1 X149.930 Y46.095 E0.08991
G1 X149.930 Y46.629 E0.01676
G1 X147.371 Y44.070 E0.11360
G1 X146.837 Y44.070 E0.01676
G1 X149.930 Y47.163 E0.13730
G1 X149.930 Y47.697 E0.01676
G1 X146.303 Y44.070 E0.16100
G1 X145.769 Y44.070 E0.01676
G1 X149.930 Y48.231 E0.18470
G1 X149.930 Y48.764 E0.01676
G1 X145.235 Y44.070 E0.20840
G1 X144.702 Y44.070 E0.01676
G1 X149.930 Y49.298 E0.23209
G1 X149.930 Y49.832 E0.01676
G1 X144.168 Y44.070 E0.25579
G1 X143.634 Y44.070 E0.01676
G1 X149.930 Y50.366 E0.27949
G1 X149.930 Y50.900 E0.01676
G1 X143.100 Y44.070 E0.30319
G1 X142.566 Y44.070 E0.01676
G1 X149.930 Y51.434 E0.32689
G1 X149.930 Y51.968 E0.01676
G1 X142.032 Y44.070 E0.35058
G1 X141.499 Y44.070 E0.01676
G1 X149.930 Y52.501 E0.37428
G1 X149.930 Y53.035 E0.01676
G1 X140.965 Y44.070 E0.39798
G1 X140.431 Y44.070 E0.01676
G1 X149.930 Y53.569 E0.42168
G1 X149.930 Y54.103 E0.01676
G1 X139.897 Y44.070 E0.44538
G1 X139.363 Y44.070 E0.01676
G1 X149.930 Y54.637 E0.46907
G1 X149.930 Y55.171 E0.01676
G1 X138.829 Y44.070 E0.49277
G1 X138.295 Y44.070 E0.01676
G1 X149.930 Y55.705 E0.51647
G1 X149.930 Y56.238 E0.01676
G1 X137.762 Y44.070 E0.54017
G1 X137.228 Y44.070 E0.01676
G1 X149.930 Y56.772 E0.56387
G1 X149.930 Y57.306 E0.01676
G1 X136.694 Y44.070 E0.58756
G1 X136.160 Y44.070 E0.01676
G1 X149.930 Y57.840 E0.61126
G1 X149.930 Y58.374 E0.01676
G1 X135.626 Y44.070 E0.63496
G1 X135.092 Y44.070 E0.01676
G1 X149.930 Y58.908 E0.65866
G1 X149.930 Y59.442 E0.01676
G1 X134.558 Y44.070 E0.68236
G1 X134.025 Y44.070 E0.01676
G1 X149.930 Y59.975 E0.70605
G1 X149.930 Y60.509 E0.01676
G1 X133.491 Y44.070 E0.72975
G1 X132.957 Y44.070 E0.01676
G1 X149.930 Y61.043 E0.75345
G1 X149.930 Y61.577 E0.01676
G1 X132.423 Y44.070 E0.77715
G1 X131.889 Y44.070 E0.01676
G1 X149.930 Y62.111 E0.80085
G1 X149.930 Y62.645 E0.01676
G1 X131.355 Y44.070 E0.82454
G1 X130.821 Y44.070 E0.01676
G1 X149.930 Y63.179 E0.84824
G1 X149.930 Y63.712 E0.01676
G1 X130.288 Y44.070 E0.87194
G1 X129.754 Y44.070 E0.01676
G1 X149.930 Y64.246 E0.89564
G1 X149.930 Y64.780 E0.01676
G1 X129.220 Y44.070 E0.91934
G1 X128.686 Y44.070 E0.01676
G1 X149.930 Y65.314 E0.94303
G1 X149.930 Y65.848 E0.01676
G1 X128.152 Y44.070 E0.96673
M73 P1 R272
G1 X127.618 Y44.070 E0.01676
G1 X149.930 Y66.382 E0.99043
G1 X149.930 Y66.916 E0.01676
G1 X127.084 Y44.070 E1.01413
G1 X126.551 Y44.070 E0.01676
G1 X149.930 Y67.449 E1.03783
G1 X149.930 Y67.983 E0.01676
G1 X126.017 Y44.070 E1.06152
G1 X125.483 Y44.070 E0.01676
G1 X149.930 Y68.517 E1.08522
M73 P1 R271
G1 X149.930 Y69.051 E0.01676
G1 X124.949 Y44.070 E1.10892
G1 X124.415 Y44.070 E0.01676
G1 X149.930 Y69.585 E1.13262
G1 X149.930 Y70.119 E0.01676
G1 X123.881 Y44.070 E1.15632
G1 X123.347 Y44.070 E0.01676
G1 X149.930 Y70.653 E1.18001
G1 X149.930 Y71.186 E0.01676
G1 X122.814 Y44.070 E1.20371
G1 X122.280 Y44.070 E0.01676
G1 X149.930 Y71.720 E1.22741
G1 X149.930 Y72.254 E0.01676
G1 X121.746 Y44.070 E1.25111
G1 X121.212 Y44.070 E0.01676
G1 X149.930 Y72.788 E1.27481
G1 X149.930 Y73.322 E0.01676
G1 X120.678 Y44.070 E1.29850
G1 X120.144 Y44.070 E0.01676
G1 X149.930 Y73.856 E1.32220
G1 X149.930 Y74.390 E0.01676
G1 X119.610 Y44.070 E1.34590
G1 X119.077 Y44.070 E0.01676
G1 X149.930 Y74.923 E1.36960
G1 X149.930 Y75.457 E0.01676
G1 X118.543 Y44.070 E1.39330
G1 X118.009 Y44.070 E0.01676
