; generated by PrusaSlicer 2.3.0+linux-x64 on 2021-12-28 at 06:31:20 UTC


;
;

;
;
; 

; external perimeters extrusion width = 0.45mm
; perimeters extrusion width = 0.45mm
; infill extrusion width = 0.45mm
; solid infill extrusion width = 0.45mm
; top infill extrusion width = 0.40mm
; support material extrusion width = 0.35mm
; first layer extrusion width = 0.42mm

M73 P0 R105
M201 X1250 Y1250 Z400 E5000 ; sets maximum accelerations, mm/sec^2
M203 X180 Y180 Z12 E80 ; sets maximum feedrates, mm/sec
M204 P1250 R1250 T1250 ; sets acceleration (P, T) and retract acceleration (R), mm/sec^2
M205 X8.00 Y8.00 Z2.00 E10.00 ; sets the jerk limits, mm/sec
M205 S0 T0 ; sets the minimum extruding and travel feed rate, mm/sec
M107
;TYPE:Custom
G90 ; use absolute coordinates
M83 ; extruder relative mode
M104 S170 ; set extruder temp for bed leveling
M140 S60 ; set bed temp
M109 R170 ; wait for bed leveling temp
M190 S60 ; wait for bed temp
G28 ; home all without mesh bed level
G29 ; mesh bed leveling 
M104 S215 ; set extruder temp
G92 E0.0
G1 Y-2.0 X179 F2400
G1 Z3 F720
M109 S215 ; wait for extruder temp

; intro line
G1 X170 F1000
G1 Z0.2 F720
G1 X110.0 E8.0 F900
G1 X40.0 E10.0 F700
G92 E0.0

M221 S95 ; set flow
G21 ; set units to millimeters
G90 ; use absolute coordinates
M83 ; use relative distances for extrusion
M900 K0.2 ; Filament gcode LA 1.5
; ; Filament gcode LA 1.0
;LAYER_CHANGE
;Z:0.2
;HEIGHT:0.2
;BEFORE_LAYER_CHANGE
G92 E0.0
;0.2


G1 Z0.200 F9000.000
;AFTER_LAYER_CHANGE
;0.2
G1 E-3.20000 F4200.000
G1 Z0.400 F9000.000
G1 X28.218 Y40.755
G1 Z0.200
G1 E3.20000 F2400.000
M204 S800
;TYPE:Skirt
;WIDTH:0.42
G1 F1200.000
G1 X28.991 Y40.623 E0.02461
G1 X151.004 Y40.623 E3.82562
G1 X151.906 Y40.802 E0.02884
G1 X152.670 Y41.308 E0.02872
G1 X153.185 Y42.065 E0.02872
G1 X153.377 Y42.965 E0.02884
G1 X153.377 Y137.023 E2.94913
G1 X153.313 Y137.547 E0.01657
G1 X153.135 Y138.045 E0.01657
G1 X152.852 Y138.491 E0.01657
G1 X152.474 Y138.865 E0.01668
G1 X151.782 Y139.245 E0.02473
G1 X151.009 Y139.377 E0.02461
G1 X28.992 Y139.377 E3.82574
G1 X28.464 Y139.316 E0.01668
G1 X27.962 Y139.138 E0.01668
G1 X27.509 Y138.852 E0.01680
G1 X27.135 Y138.474 E0.01668
G1 X26.757 Y137.786 E0.02461
G1 X26.623 Y137.013 E0.02461
G1 X26.623 Y42.989 E2.94805
G1 X26.685 Y42.460 E0.01668
G1 X26.863 Y41.959 E0.01668
G1 X27.148 Y41.509 E0.01668
G1 X27.526 Y41.135 E0.01668
G1 X28.165 Y40.784 E0.02285
M204 S1250
; printing object cover.stl id:0 copy 0
G1 E-2.24000 F4200.000
;WIPE_START
G1 F7200.000
G1 X28.991 Y40.623 E-0.46650
G1 X29.795 Y40.623 E-0.44550
;WIPE_END
G1 E-0.04800 F4200.000
G1 Z0.400 F9000.000
G1 X98.411 Y100.753
G1 Z0.200
G1 E3.20000 F2400.000
M204 S800
;TYPE:Perimeter
G1 F1200.000
G1 X100.361 Y99.198 E0.07819
G1 X102.792 Y99.753 E0.07819
G1 X103.874 Y102.000 E0.07819
G1 X102.792 Y104.247 E0.07819
G1 X100.361 Y104.802 E0.07819
G1 X98.411 Y103.247 E0.07819
G1 X98.411 Y100.813 E0.07630
M204 S1250
G1 X98.788 Y100.935 F9000.000
M204 S800
;TYPE:External perimeter
G1 F1200.000
G1 X100.454 Y99.606 E0.06680
G1 X102.531 Y100.081 E0.06680
G1 X103.455 Y102.000 E0.06680
G1 X102.531 Y103.919 E0.06680
G1 X100.454 Y104.394 E0.06680
G1 X98.788 Y103.065 E0.06680
G1 X98.788 Y100.995 E0.06492
M204 S1250
G1 X98.563 Y100.604 F9000.000
G1 E-2.24000 F4200.000
;WIPE_START
G1 F7200.000
G1 X100.052 Y99.941 E-0.91200
;WIPE_END
G1 E-0.04800 F4200.000
G1 Z0.400 F9000.000
G1 X78.874 Y102.000
G1 Z0.200
G1 E3.20000 F2400.000
M204 S800
;TYPE:Perimeter
G1 F1200.000
G1 X77.792 Y104.247 E0.07819
G1 X75.361 Y104.802 E0.07819
G1 X73.411 Y103.247 E0.07819
G1 X73.411 Y100.753 E0.07819
G1 X75.361 Y99.198 E0.07819
G1 X77.792 Y99.753 E0.07819
G1 X78.848 Y101.946 E0.07630
M204 S1250
G1 X78.455 Y102.000 F9000.000
M204 S800
;TYPE:External perimeter
G1 F1200.000
G1 X77.531 Y103.919 E0.06680
G1 X75.454 Y104.394 E0.06680
G1 X73.788 Y103.065 E0.06680
G1 X73.788 Y100.935 E0.06680
G1 X75.454 Y99.606 E0.06680
G1 X77.531 Y100.081 E0.06680
G1 X78.429 Y101.946 E0.06492
M204 S1250
G1 X78.801 Y102.200 F9000.000
G1 E-2.24000 F4200.000
;WIPE_START
G1 F7200.000
G1 X77.747 Y103.444 E-0.91200
;WIPE_END
G1 E-0.04800 F4200.000
G1 Z0.400 F9000.000
G1 X75.361 Y79.802
G1 Z0.200
G1 E3.20000 F2400.000
M204 S800
;TYPE:Perimeter
G1 F1200.000
G1 X73.411 Y78.247 E0.07819
G1 X73.411 Y75.753 E0.07819
G1 X75.361 Y74.198 E0.07819
G1 X77.792 Y74.753 E0.07819
G1 X78.874 Y77.000 E0.07819
G1 X77.792 Y79.247 E0.07819
G1 X75.419 Y79.788 E0.07630
M204 S1250
G1 X75.454 Y79.394 F9000.000
M204 S800
;TYPE:External perimeter
G1 F1200.000
G1 X73.788 Y78.065 E0.06680
G1 X73.788 Y75.935 E0.06680
G1 X75.454 Y74.606 E0.06680
G1 X77.531 Y75.081 E0.06680
G1 X78.455 Y77.000 E0.06680
G1 X77.531 Y78.919 E0.06680
G1 X75.512 Y79.380 E0.06492
M204 S1250
G1 X75.182 Y79.687 F9000.000
G1 E-2.24000 F4200.000
;WIPE_START
G1 F7200.000
G1 X74.204 Y78.382 E-0.91200
;WIPE_END
G1 E-0.04800 F4200.000
G1 Z0.400 F9000.000
G1 X77.747 Y81.688
G1 Z0.200
G1 E3.20000 F2400.000
M204 S800
;TYPE:Perimeter
G1 F1200.000
G1 X79.606 Y79.623 E0.08712
G1 X81.854 Y77.989 E0.08712
G1 X84.393 Y76.859 E0.08712
G1 X87.111 Y76.281 E0.08712
G1 X89.889 Y76.281 E0.08712
G1 X92.607 Y76.859 E0.08712
G1 X95.146 Y77.989 E0.08712
G1 X97.394 Y79.623 E0.08712
G1 X99.253 Y81.688 E0.08712
G1 X100.642 Y84.094 E0.08712
G1 X101.501 Y86.737 E0.08712
G1 X101.791 Y89.500 E0.08712
G1 X101.501 Y92.263 E0.08712
G1 X100.642 Y94.906 E0.08712
G1 X99.253 Y97.312 E0.08712
G1 X97.394 Y99.377 E0.08712
G1 X95.146 Y101.011 E0.08712
G1 X92.607 Y102.141 E0.08712
G1 X89.889 Y102.719 E0.08712
G1 X87.111 Y102.719 E0.08712
G1 X84.393 Y102.141 E0.08712
G1 X81.854 Y101.011 E0.08712
G1 X79.606 Y99.377 E0.08712
G1 X77.747 Y97.312 E0.08712
G1 X76.358 Y94.906 E0.08712
G1 X75.499 Y92.263 E0.08712
G1 X75.209 Y89.500 E0.08712
G1 X75.499 Y86.737 E0.08712
G1 X76.358 Y84.094 E0.08712
G1 X77.717 Y81.739 E0.08524
M204 S1250
G1 X78.044 Y81.928 F9000.000
M204 S800
;TYPE:External perimeter
G1 F1200.000
G1 X79.860 Y79.904 E0.08526
G1 X82.044 Y78.318 E0.08464
G1 X84.510 Y77.220 E0.08464
G1 X87.150 Y76.658 E0.08464
G1 X89.850 Y76.658 E0.08464
G1 X92.490 Y77.220 E0.08464
G1 X94.956 Y78.318 E0.08464
G1 X97.140 Y79.904 E0.08464
G1 X98.946 Y81.910 E0.08464
G1 X100.296 Y84.248 E0.08464
G1 X101.130 Y86.815 E0.08464
G1 X101.412 Y89.500 E0.08464
G1 X101.130 Y92.185 E0.08464
G1 X100.296 Y94.752 E0.08464
G1 X98.946 Y97.090 E0.08464
G1 X97.140 Y99.096 E0.08464
G1 X94.956 Y100.682 E0.08464
G1 X92.490 Y101.780 E0.08464
G1 X89.850 Y102.342 E0.08464
G1 X87.150 Y102.342 E0.08464
G1 X84.510 Y101.780 E0.08464
G1 X82.044 Y100.682 E0.08464
G1 X79.860 Y99.096 E0.08464
G1 X78.054 Y97.090 E0.08464
G1 X76.704 Y94.752 E0.08464
G1 X75.870 Y92.185 E0.08464
G1 X75.588 Y89.500 E0.08464
G1 X75.870 Y86.815 E0.08464
G1 X76.704 Y84.248 E0.08464
G1 X78.014 Y81.980 E0.08212
M204 S1250
G1 X77.880 Y81.563 F9000.000
G1 E-2.24000 F4200.000
;WIPE_START
G1 F7200.000
G1 X79.107 Y80.750 E-0.91200
;WIPE_END
G1 E-0.04800 F4200.000
G1 Z0.400 F9000.000
G1 X98.411 Y78.247
G1 Z0.200
G1 E3.20000 F2400.000
M204 S800
;TYPE:Perimeter
G1 F1200.000
G1 X98.411 Y75.753 E0.07819
G1 X99.996 Y74.489 E0.06358
G1 X100.361 Y74.198 E0.01461
G1 X102.792 Y74.753 E0.07819
G1 X103.874 Y77.000 E0.07819
G1 X102.792 Y79.247 E0.07819
G1 X100.361 Y79.802 E0.07819
G1 X98.458 Y78.284 E0.07630
M204 S1250
G1 X98.788 Y78.065 F9000.000
M204 S800
;TYPE:External perimeter
G1 F1200.000
G1 X98.788 Y75.935 E0.06680
G1 X100.231 Y74.784 E0.05789
G1 X100.454 Y74.606 E0.00891
G1 X102.531 Y75.081 E0.06680
G1 X103.455 Y77.000 E0.06680
G1 X102.531 Y78.919 E0.06680
G1 X100.454 Y79.394 E0.06680
G1 X98.835 Y78.103 E0.06492
M204 S1250
G1 X98.389 Y78.035 F9000.000
G1 E-2.24000 F4200.000
;WIPE_START
G1 F7200.000
G1 X98.799 Y76.457 E-0.91200
;WIPE_END
G1 E-0.04800 F4200.000
G1 Z0.400 F9000.000
G1 X144.411 Y48.247
G1 Z0.200
G1 E3.20000 F2400.000
M204 S800
;TYPE:Perimeter
G1 F1200.000
G1 X144.411 Y45.753 E0.07819
G1 X145.996 Y44.489 E0.06358
G1 X146.361 Y44.198 E0.01461
G1 X148.792 Y44.753 E0.07819
G1 X149.874 Y47.000 E0.07819
G1 X148.792 Y49.247 E0.07819
G1 X146.361 Y49.802 E0.07819
G1 X144.458 Y48.284 E0.07630
M204 S1250
G1 X144.788 Y48.065 F9000.000
M204 S800
;TYPE:External perimeter
G1 F1200.000
G1 X144.788 Y45.935 E0.06680
G1 X146.231 Y44.784 E0.05789
G1 X146.454 Y44.606 E0.00891
G1 X148.531 Y45.081 E0.06680
G1 X149.455 Y47.000 E0.06680
G1 X148.531 Y48.919 E0.06680
G1 X146.454 Y49.394 E0.06680
G1 X144.835 Y48.103 E0.06492
M204 S1250
G1 X144.389 Y48.035 F9000.000
G1 E-2.24000 F4200.000
;WIPE_START
G1 F7200.000
G1 X144.799 Y46.457 E-0.91200
;WIPE_END
G1 E-0.04800 F4200.000
G1 Z0.400 F9000.000
G1 X146.361 Y130.198
M73 P0 R104
G1 Z0.200
G1 E3.20000 F2400.000
M204 S800
;TYPE:Perimeter
G1 F1200.000
G1 X148.792 Y130.753 E0.07819
G1 X149.874 Y133.000 E0.07819
G1 X148.792 Y135.247 E0.07819
G1 X146.361 Y135.802 E0.07819
G1 X144.411 Y134.247 E0.07819
G1 X144.411 Y131.753 E0.07819
G1 X146.314 Y130.236 E0.07630
M204 S1250
G1 X146.454 Y130.606 F9000.000
M204 S800
;TYPE:External perimeter
G1 F1200.000
G1 X148.531 Y131.081 E0.06680
G1 X149.455 Y133.000 E0.06680
G1 X148.531 Y134.919 E0.06680
G1 X146.454 Y135.394 E0.06680
G1 X144.788 Y134.065 E0.06680
G1 X144.788 Y131.935 E0.06680
G1 X146.407 Y130.644 E0.06492
M204 S1250
G1 X146.572 Y130.224 F9000.000
G1 E-2.24000 F4200.000
;WIPE_START
G1 F7200.000
G1 X148.019 Y130.975 E-0.91200
;WIPE_END
G1 E-0.04800 F4200.000
G1 Z0.400 F9000.000
G1 X35.874 Y133.000
G1 Z0.200
G1 E3.20000 F2400.000
M204 S800
;TYPE:Perimeter
G1 F1200.000
G1 X34.792 Y135.247 E0.07819
G1 X32.361 Y135.802 E0.07819
M73 P1 R104
G1 X30.411 Y134.247 E0.07819
G1 X30.411 Y131.753 E0.07819
G1 X32.361 Y130.198 E0.07819
G1 X34.792 Y130.753 E0.07819
G1 X35.848 Y132.946 E0.07630
M204 S1250
G1 X35.455 Y133.000 F9000.000
M204 S800
;TYPE:External perimeter
G1 F1200.000
G1 X34.531 Y134.919 E0.06680
G1 X32.454 Y135.394 E0.06680
G1 X30.788 Y134.065 E0.06680
G1 X30.788 Y131.935 E0.06680
G1 X32.454 Y130.606 E0.06680
G1 X34.531 Y131.081 E0.06680
G1 X35.429 Y132.946 E0.06492
M204 S1250
G1 X35.801 Y133.200 F9000.000
G1 E-2.24000 F4200.000
;WIPE_START
G1 F7200.000
G1 X34.747 Y134.444 E-0.91200
;WIPE_END
G1 E-0.04800 F4200.000
G1 Z0.400 F9000.000
G1 X32.361 Y49.802
G1 Z0.200
G1 E3.20000 F2400.000
M204 S800
;TYPE:Perimeter
G1 F1200.000
G1 X30.411 Y48.247 E0.07819
G1 X30.411 Y45.753 E0.07819
G1 X32.361 Y44.198 E0.07819
G1 X34.792 Y44.753 E0.07819
G1 X35.874 Y47.000 E0.07819
G1 X34.792 Y49.247 E0.07819
G1 X32.419 Y49.788 E0.07630
M204 S1250
G1 X32.454 Y49.394 F9000.000
M204 S800
;TYPE:External perimeter
G1 F1200.000
G1 X30.788 Y48.065 E0.06680
G1 X30.788 Y45.935 E0.06680
G1 X32.454 Y44.606 E0.06680
G1 X34.531 Y45.081 E0.06680
G1 X35.455 Y47.000 E0.06680
G1 X34.531 Y48.919 E0.06680
G1 X32.512 Y49.380 E0.06492
M204 S1250
G1 X32.182 Y49.687 F9000.000
G1 E-2.24000 F4200.000
;WIPE_START
G1 F7200.000
G1 X31.204 Y48.382 E-0.91200
;WIPE_END
G1 E-0.04800 F4200.000
G1 Z0.400 F9000.000
G1 X29.787 Y43.787
G1 Z0.200
G1 E3.20000 F2400.000
M204 S800
;TYPE:Perimeter
G1 F1200.000
G1 X150.213 Y43.787 E3.77587
G1 X150.213 Y136.213 E2.89795
G1 X29.787 Y136.213 E3.77587
G1 X29.787 Y43.847 E2.89607
M204 S1250
G1 X29.410 Y43.410 F9000.000
M204 S800
;TYPE:External perimeter
G1 F1200.000
G1 X150.590 Y43.410 E3.79951
G1 X150.590 Y136.590 E2.92159
G1 X29.410 Y136.590 E3.79951
G1 X29.410 Y43.470 E2.91971
M204 S1250
G1 X29.800 Y43.497 F9000.000
G1 E-2.24000 F4200.000
;WIPE_START
G1 F7200.000
G1 X31.056 Y43.469 E-0.91200
;WIPE_END
G1 E-0.04800 F4200.000
G1 Z0.400 F9000.000
G1 X31.456 Y43.900
G1 Z0.200
G1 E3.20000 F2400.000
M204 S800
;TYPE:Solid infill
;WIDTH:0.472474
G1 F1200.000
G1 X31.822 Y44.266 E0.01849
G1 X31.484 Y44.536 E0.01544
G1 X31.018 Y44.070 E0.02353
G1 X30.411 Y44.070 E0.02170
G1 X31.146 Y44.805 E0.03715
G1 X30.808 Y45.075 E0.01544
G1 X30.070 Y44.336 E0.03729
G1 X30.070 Y44.944 E0.02170
G1 X30.591 Y45.465 E0.02632
M204 S1250
G1 X30.099 Y45.761 F9000.000
M204 S800
;TYPE:Gap fill
;WIDTH:0.289748
G1 F1200.000
G1 X30.099 Y48.239 E0.05086
M204 S1250
G1 E-2.24000 F4200.000
;WIPE_START
G1 F7200.000
G1 X30.099 Y46.593 E-0.91200
;WIPE_END
G1 E-0.04800 F4200.000
G1 Z0.400 F9000.000
G1 X32.430 Y43.998
G1 Z0.200
G1 E3.20000 F2400.000
M204 S800
;WIDTH:0.13511
G1 F1200.000
G1 X32.645 Y44.022 E0.00166
M204 S1250
M204 S800
;WIDTH:0.1769
G1 X32.859 Y44.046 E0.00241
M204 S1250
M204 S800
;WIDTH:0.21869
G1 X33.074 Y44.071 E0.00316
M204 S1250
M204 S800
;WIDTH:0.26048
G1 X33.288 Y44.095 E0.00391
M204 S1250
M204 S800
;WIDTH:0.30227
G1 X33.503 Y44.119 E0.00466
M204 S1250
M204 S800
;WIDTH:0.34406
G1 X33.718 Y44.143 E0.00541
M204 S1250
G1 E-2.24000 F4200.000
;WIPE_START
G1 F7200.000
G1 X33.503 Y44.119 E-0.11965
;WIPE_END
G1 E-0.84035 F4200.000
G1 Z0.400 F9000.000
G1 X30.099 Y131.761
G1 Z0.200
G1 E3.20000 F2400.000
M204 S800
;WIDTH:0.289748
G1 F1200.000
G1 X30.099 Y134.239 E0.05086
M204 S1250
G1 E-2.24000 F4200.000
;WIPE_START
G1 F7200.000
G1 X30.099 Y132.593 E-0.91200
;WIPE_END
G1 E-0.04800 F4200.000
G1 Z0.400 F9000.000
G1 X31.730 Y136.100
G1 Z0.200
G1 E3.20000 F2400.000
M204 S800
;TYPE:Solid infill
;WIDTH:0.420259
G1 F1200.000
G1 X30.152 Y134.522 E0.07001
G1 X30.070 Y134.522 E0.00259
G1 X30.070 Y134.973 E0.01416
G1 X31.027 Y135.930 E0.04246
G1 X30.493 Y135.930 E0.01674
G1 X29.900 Y135.337 E0.02631
M204 S1250
G1 E-2.24000 F4200.000
;WIPE_START
G1 F7200.000
G1 X30.493 Y135.930 E-0.46474
G1 X31.027 Y135.930 E-0.29572
G1 X30.833 Y135.737 E-0.15154
;WIPE_END
G1 E-0.04800 F4200.000
G1 Z0.400 F9000.000
G1 X32.430 Y136.002
G1 Z0.200
G1 E3.20000 F2400.000
M204 S800
;TYPE:Gap fill
;WIDTH:0.13511
G1 F1200.000
G1 X32.645 Y135.978 E0.00166
M204 S1250
M204 S800
;WIDTH:0.1769
G1 X32.859 Y135.954 E0.00241
M204 S1250
M204 S800
;WIDTH:0.218689
G1 X33.074 Y135.929 E0.00316
M204 S1250
M204 S800
;WIDTH:0.260479
G1 X33.288 Y135.905 E0.00391
M204 S1250
M204 S800
;WIDTH:0.302269
G1 X33.503 Y135.881 E0.00466
M204 S1250
M204 S800
;WIDTH:0.344058
G1 X33.718 Y135.857 E0.00541
M204 S1250
G1 E-2.24000 F4200.000
;WIPE_START
G1 F7200.000
G1 X33.503 Y135.881 E-0.11965
;WIPE_END
G1 E-0.84035 F4200.000
G1 Z0.400 F9000.000
G1 X146.430 Y136.002
G1 Z0.200
G1 E3.20000 F2400.000
M204 S800
;WIDTH:0.13511
G1 F1200.000
G1 X146.645 Y135.978 E0.00166
M204 S1250
M204 S800
;WIDTH:0.1769
G1 X146.859 Y135.954 E0.00241
M204 S1250
M204 S800
;WIDTH:0.218689
G1 X147.074 Y135.929 E0.00316
M204 S1250
M204 S800
;WIDTH:0.260479
G1 X147.288 Y135.905 E0.00391
M204 S1250
M204 S800
;WIDTH:0.302269
G1 X147.503 Y135.881 E0.00466
M204 S1250
M204 S800
;WIDTH:0.344058
G1 X147.718 Y135.857 E0.00541
M204 S1250
G1 E-2.24000 F4200.000
;WIPE_START
G1 F7200.000
G1 X147.503 Y135.881 E-0.11965
;WIPE_END
G1 E-0.84035 F4200.000
G1 Z0.400 F9000.000
G1 X150.100 Y133.975
G1 Z0.200
G1 E3.20000 F2400.000
M204 S800
;TYPE:Solid infill
;WIDTH:0.457889
G1 F1200.000
G1 X149.842 Y133.717 E0.01258
G1 X149.651 Y134.114 E0.01517
G1 X149.930 Y134.392 E0.01361
G1 X149.930 Y134.979 E0.02025
G1 X149.460 Y134.510 E0.02292
G1 X149.270 Y134.906 E0.01517
G1 X149.930 Y135.566 E0.03223
G1 X149.930 Y135.930 E0.01256
G1 X149.707 Y135.930 E0.00769
G1 X149.079 Y135.302 E0.03066
G1 X148.987 Y135.492 E0.00728
G1 X148.739 Y135.549 E0.00879
G1 X149.120 Y135.930 E0.01861
G1 X148.534 Y135.930 E0.02025
G1 X148.119 Y135.516 E0.02020
M204 S1250
G1 E-2.24000 F4200.000
;WIPE_START
G1 F7200.000
G1 X148.534 Y135.930 E-0.32449
G1 X149.120 Y135.930 E-0.32522
G1 X148.786 Y135.595 E-0.26230
;WIPE_END
G1 E-0.04800 F4200.000
G1 Z0.400 F9000.000
G1 X150.100 Y44.668
G1 Z0.200
G1 E3.20000 F2400.000
M204 S800
;WIDTH:0.422514
G1 F1200.000
G1 X149.502 Y44.070 E0.02669
G1 X148.965 Y44.070 E0.01694
G1 X149.930 Y45.035 E0.04308
G1 X149.930 Y45.572 E0.01694
G1 X148.259 Y43.900 E0.07461
M204 S1250
G1 X148.360 Y44.539 F9000.000
M204 S800
G1 F1200.000
G1 X147.845 Y44.023 E0.02302
M204 S1250
G1 E-2.24000 F4200.000
;WIPE_START
G1 F7200.000
G1 X148.360 Y44.539 E-0.40411
;WIPE_END
G1 E-0.55589 F4200.000
G1 Z0.400 F9000.000
G1 X149.235 Y45.414
G1 Z0.200
G1 E3.20000 F2400.000
M204 S800
G1 F1200.000
G1 X150.100 Y46.278 E0.03860
M204 S1250
G1 E-2.24000 F4200.000
;WIPE_START
G1 F7200.000
G1 X149.235 Y45.414 E-0.67764
